packages/icons/svg/Instruction_Payment_Checkout_48px.svg

<svg xmlns="http://www.w3.org/2000/svg" viewBox="0 0 48 48"><path d="M42 32h-1.25l-2.16-11.51A5.51 5.51 0 0033.18 16H25.5v-3H30a2 2 0 002-2V6a2 2 0 00-2-2H18a2 2 0 00-2 2v5a2 2 0 002 2h4.5v3h-7.68a5.51 5.51 0 00-5.41 4.49L7.25 32H6a2 2 0 00-2 2v8a2 2 0 002 2h36a2 2 0 002-2v-8a2 2 0 00-2-2zM19 7h10v3H19zm-6.64 14a2.51 2.51 0 012.46-2h18.36a2.51 2.51 0 012.46 2l2 11H10.31zM41 41H7v-6h34z"/><path d="M15.5 22h17v4h-17zM21.5 39h5a1 1 0 000-2h-5a1 1 0 000 2z"/></svg>

<svg xmlns="http://www.w3.org/2000/svg" viewBox="0 0 48 48"><defs></defs><g id="Icon"><path  d="M42,32H40.75L38.59,20.49A5.51,5.51,0,0,0,33.18,16H25.5V13H30a2,2,0,0,0,2-2V6a2,2,0,0,0-2-2H18a2,2,0,0,0-2,2v5a2,2,0,0,0,2,2h4.5v3H14.82a5.51,5.51,0,0,0-5.41,4.49L7.25,32H6a2,2,0,0,0-2,2v8a2,2,0,0,0,2,2H42a2,2,0,0,0,2-2V34A2,2,0,0,0,42,32ZM19,7H29v3H19ZM12.36,21a2.51,2.51,0,0,1,2.46-2H33.18a2.51,2.51,0,0,1,2.46,2l2,11H10.31ZM41,41H7V35H41Z"/><rect  x="15.5" y="22" width="17" height="4"/><path  d="M21.5,39h5a1,1,0,0,0,0-2h-5a1,1,0,0,0,0,2Z"/></g></svg>
